mobile/24/svg/autoplay-slash-24.svg

<svg width="24" height="24" viewBox="0 0 24 24" fill="none" xmlns="http://www.w3.org/2000/svg">
<path d="M12 6.72C12 7.209 11.411 7.453 11.064 7.111L6.88998 2.936C6.54598 2.589 6.79098 2 7.27998 2H11.45C11.754 2 12 2.246 12 2.55V6.72Z" fill="black"/>
<path d="M19.395 15.44C19.939 14.423 20.25 13.262 20.25 12.03C20.25 8.28599 17.398 5.19599 13.751 4.81899V3.06799C18.363 3.45199 22 7.32099 22 12.03C22 13.748 21.508 15.349 20.67 16.715L19.395 15.44Z" fill="black"/>
<path d="M16.7259 12.772L16.8559 12.698C17.396 12.39 17.396 11.611 16.8559 11.303L13.1219 9.16901L16.7259 12.772Z" fill="black"/>
<path fill-rule="evenodd" clip-rule="evenodd" d="M22.2497 20.7623L3.48768 2.00031L2.25024 3.23774L5.7495 6.737C4.65332 8.22042 4 10.0464 4 12.03C4 16.993 8.037 21.03 13 21.03C14.9835 21.03 16.8146 20.3814 18.3013 19.2888L21.0122 21.9997L22.2497 20.7623ZM5.75 12.03C5.75 10.5283 6.21531 9.1423 7.00524 7.99274L10.5 11.4875V14.945C10.5 15.562 11.167 15.949 11.702 15.643L13.5816 14.5691L17.0474 18.0349C15.8917 18.8196 14.4997 19.28 13 19.28C9.002 19.28 5.75 16.028 5.75 12.03Z" fill="black"/>
</svg>

<svg width="24" height="24" fill="none" xmlns="http://www.w3.org/2000/svg"><path d="M12 6.72a.55.55 0 0 1-.936.391L6.89 2.936A.549.549 0 0 1 7.28 2h4.17a.55.55 0 0 1 .55.55v4.17zM19.395 15.44a7.21 7.21 0 0 0 .855-3.41c0-3.744-2.852-6.834-6.499-7.211V3.068C18.363 3.452 22 7.321 22 12.03a8.93 8.93 0 0 1-1.33 4.685l-1.275-1.275zM16.726 12.772l.13-.074a.803.803 0 0 0 0-1.395l-3.734-2.134 3.604 3.603z" fill="#000"/><path fill-rule="evenodd" clip-rule="evenodd" d="M22.25 20.762 3.488 2 2.25 3.238l3.5 3.499A8.87 8.87 0 0 0 4 12.03c0 4.963 4.037 9 9 9a8.92 8.92 0 0 0 5.301-1.741l2.711 2.71 1.238-1.237zM5.75 12.03c0-1.502.465-2.888 1.255-4.037l3.495 3.495v3.457a.804.804 0 0 0 1.202.698l1.88-1.074 3.465 3.466A7.18 7.18 0 0 1 13 19.28c-3.998 0-7.25-3.252-7.25-7.25z" fill="#000"/></svg>
